public/avatar/shoe/184.svg

<svg xmlns:xlink="http://www.w3.org/1999/xlink" height="38.3" width="36.05" xmlns="http://www.w3.org/2000/svg"><use height="27.1" transform="translate(13.8 11.2)" width="18.9" xlink:href="#a"/><defs><g id="a" fill-rule="evenodd"><path d="m-7.15 1.25-.05.2q-.2.3.2.45 1.8.25 3.65 1.15Q-1.1 4.05.6 5.7q.25.2.45 0 .95-1.85 3-2.85l.4-.5q-.95-5.15-6.4-5.6H-2q-3.5 1.05-5.15 4.5M-3.2 3.5l-.45-.2-1.85-.7-.3-.05h-1.75l-.25.05h-.3l-.3.05.15-.3.15-.4q1.75-4.1 6.4-5.6 5.65.9 6.85 5.55l.1.55.1.35-.55.1-.05.1-.25.05v.05q-.15 0-.2.1L2.6 4.4v.1l-.1.1-.35.35q-.9 1.2-.9 3.1L.8 6.95.4 6.1l-.6-.75-1.05-1.05-.05-.1-.2-.05-1.7-.65m-2.9 1.3q-1 .85-1.35 2.35-.15.4.1.65 2.7 2.65 6.85 1.15l.25-.3-.15-.4.45.5.3.35.85.65.15.15-.8.1-1 .05-1.7.2q-2.2.3-3.7-.05l-.95-.4q-2.75-1.2-2.05-5.2v-.05l2.3.15.05.05.35.05h.05m12.75.4-.35-.5.15-.1.05.15q.85 1.4.6 3.25l-.55 1.3-1.45.5-3 .25-.25-.25-.15-.05V9.5l.65-.8q.5.45 1.9.4 1.15-.15 1.8-1.05l.7-1.75-.1-1.1" fill="#3c4d4a" transform="translate(10 3.65)"/><path d="M-7.15 1.25q2.4.85 4.75 2.15l2 1q.75.3.45-.35-.65-2.1-.7-4.25-.05-1.9-1.1-3l-.2-.05q5.45.45 6.4 5.6l-.4.5q-2.05 1-3 2.85-.2.2-.45 0-1.7-1.65-3.95-2.65Q-5.2 2.15-7 1.9q-.4-.15-.2-.45l.05-.2M-3.3 6.1h-.15l-2.65.6q-.25.05 0 .1 2 1.3 4.8 1.45.25 0 .35-.25l-.15-.55.55.65.15.15.15.4-.25.3q-4.15 1.5-6.85-1.15-.25-.25-.1-.65.35-1.5 1.35-2.35l.95.2.1.05L-3.3 6.1M3 7l.15.15q1.55.8 3.05-.35l.55-.5-.7 1.75q-.65.9-1.8 1.05-1.4.05-1.9-.4.2-.95.65-1.7" fill="#b8cbcb" transform="translate(10 3.65)"/><path d="m-3.65 3.3.45.2-.05.15-.4-.35m2.15.85.2.05.05.1-.05.05-.05.05-.15-.25m6.75-1.7-.1-.55h.2l.9.95L7.6 4.5l1.3 3.1v2.45L5.45 20.6q-.5.4-.85 1.05l-.05.1-.6.6-.25.15-.3.2q-.4.5-1.4.55l-4.25.2-1.95-.65-1.1-.55q-1.85-1.2-2.6-3.45l-1.2-3.35-.85-2.7v-7.5l-.05.2.05-1.9.1-.15.15 1 .3.15.55.05q-.7 4 2.05 5.2l.95.4q1.5.35 3.7.05l1.7-.2 1-.05.8-.1-.15-.15-.85-.65.95.45.4.05v.15l.15.05.25.25 3-.25 1.45-.5L7.1 8q.25-1.85-.6-3.25.8-.35.15-1.35-.45-.75-1.3-.95h-.1m-14.8 0 .05-.05-.35.25q.15-.2.45-.3l-.15.1M-9.6 5.7q-.4 1.85.65 3.4h.05l-.65-3.4h-.05M3.7 22.5l.15-.4-.25.25v.05l-.15.2.25-.1m-9.2-10.65.05-.1-.4-.1v.05l-1.7-.85q.6 1.45 1.85 2V13l.05.45.05.2v.25-.25l-.05-.2.05-.5h.1l.9.25q-.4 1.75.1 3.7l.55 2.45.45 2.55 2.1.6 2.85-.25.4-.2L4.95 20q1.8-4.4 3.1-8.8L8.5 10h.1l.05-.4q.25-1.35-.4-2.4L8 6.5l-.4-.4.45 1.45.15.45v.25l-.05.45-.1-.3q-.25 2.9-3.9 3.55-4.1.65-8.25.05h-.2l-.05.35-1.15-.5m1.65 1.35h.1l-.45.3.35-.25v-.05m-3.35 6.55v-.3q-.05-.15-.2-.15l.2.45" fill="#765425" transform="translate(10 3.65)"/><path d="m-3.2 3.5 1.7.65.15.25.05-.05.05-.05L-.2 5.35l.6.75.4.85.45 1.1q0-1.9.9-3.1l.35-.35.1-.1v-.1l1.7-1.2q.05-.1.2-.1v-.05L4.75 3l.05-.1.55-.1-.1-.35h.1q.85.2 1.3.95.65 1-.15 1.35l-.05-.15-.15.1.35.5h-.1l-.8-.4-.15.05.15-.05.8.4h.1l.1 1.1-.55.5q-1.5 1.15-3.05.35L3 7q.05-.25.25-.35l.35-.5.45-.45.45-.3q.4-.35.95-.55h.15l.4-.1.1-.05h.2-.2l-.1.05-.4.1h-.15q-.55.2-.95.55l-.45.3-.45.45-.35.5q-.2.1-.25.35-.45.75-.65 1.7l-.65.8v.1l-.4-.05-.95-.45-.3-.35-.45-.5-.15-.15-.55-.65-.05-.05-2.15-1.3-1.75-1.05-.1-.05-.95-.2h-.05l-.35-.05-.05-.05-2.3-.15v.05l-.55-.05-.3-.15-.15-1 .3-.95.15-.1 1.3-.4-.15.4-.15.3.3-.05h.3l.25-.05h1.75l.3.05 1.85.7.4.35.05-.15m3.15 2.2v-.05l-.05.05h.05m-7.1-1.65Q-3 4.6.15 7.45l.1-.1Q.05 6.1-.95 5.2q-2.15-2-5.2-2.2-2.05-.2-1.1.9l.1.15m11.9.45 1.1-1.2-.2-.2h-.1q-3.8 1.25-3.9 5.1h.05q.65-1.4 1.9-2.6l.05-.1 1.1-1" fill="#7b0d3c" transform="translate(10 3.65)"/><path d="m-10 5.45.05-.2v.45l-.05-.25M3.7 22.5l-.25.1.15-.2v-.05l.25-.25-.15.4m-9.2-10.65-.35-.15v-.05l.4.1-.05.1m-.2 1 .1.1-.05.5-.05-.45v-.15m1.1.35h.75v.05l-.35.25.45-.3.7-.05.35-.15-1.65-.65.05-.35h.2q4.15.6 8.25-.05 3.65-.65 3.9-3.55l.1.3-.1.65q-.65 1.25-2 2.3l-.4.2q-.3.1-.55.3l-.6.15-7.15.95q3.2.4 6.25 0v.15l1.1-.45.3-.1q-1.85 4.65-3.55 9.4l-2.85.25-2.1-.6-.45-2.55-.55-2.45q-.5-1.95-.1-3.7m-2.6 6.55-.2-.45q.15 0 .2.15v.3M7.3 12.1l.25-.2-.2.2H7.3" fill="#a58343" transform="translate(10 3.65)"/><path d="M-9.6 5.7h.05l.65 3.4h-.05Q-10 7.55-9.6 5.7m3.75 6 .35.15 1.15.5 1.65.65-.35.15-.7.05h-.85l-.9-.25h-.1l-.1-.1q-1.25-.55-1.85-2l1.7.85M8.2 8.25V8l-.35-1.3.4.5q.65 1.05.4 2.4l-.15.4-.45 1.2q-1.3 4.4-3.1 8.8l-3.1 2.05-.4.2q1.7-4.75 3.55-9.4l-.3.1q-.4-.1 0-.45l.4-.35q.25-.2.55-.3l.4-.2q2.3-1.2 2.15-3.4m-.9 3.85V12l-.15.15.15-.05h.05l.2-.2-.25.2" fill="#d5c199" transform="translate(10 3.65)"/><path d="M-3.05 4.35h-.2q-.25.15-.1.25.95.9 2.4 1.5.25.05.2-.1-.2-1.3-1.7-1.6-2.15-1.35-4.8-1.15h-.1q2.2.3 4.3 1.1m-4.1-.3-.1-.15q-.95-1.1 1.1-.9 3.05.2 5.2 2.2 1 .9 1.2 2.15l-.1.1Q-3 4.6-7.15 4.05M3.65 5.5l-.05.1Q2.35 6.8 1.7 8.2h-.05q.1-3.85 3.9-5.1h.1l.2.2-1.1 1.2q.2-.45-.15-.85l-.7.45-.1.05q-1.5 1.1-1.5 2.8l.05-.05.45-1.05.85-.35" fill="#fe7692" transform="translate(10 3.65)"/><path d="M-3.05 4.35q-2.1-.8-4.3-1.1h.1q2.65-.2 4.8 1.15 1.5.3 1.7 1.6.05.15-.2.1-1.45-.6-2.4-1.5-.15-.1.1-.25h.2m6.7 1.15-.85.35-.45 1.05-.05.05q0-1.7 1.5-2.8l.1-.05.7-.45q.35.4.15.85l-1.1 1" fill="#ffb9c7" transform="translate(10 3.65)"/><path d="m-1.95-3.25.2.05q1.05 1.1 1.1 3 .05 2.15.7 4.25.3.65-.45.35l-2-1q-2.35-1.3-4.75-2.15Q-5.5-2.2-2-3.25h.05m.85 10.7.15.55q-.1.25-.35.25-2.8-.15-4.8-1.45-.25-.05 0-.1l2.65-.6h.15l2.15 1.3.05.05" fill="#fff" transform="translate(10 3.65)"/><path d="M-.05 5.7H-.1l.05-.05v.05" fill="#e2d5ba" transform="translate(10 3.65)"/><path d="m8.15 8.7.05-.45q.15 2.2-2.15 3.4 1.35-1.05 2-2.3l.1-.65M8.2 8l-.15-.45L7.6 6.1l.4.4.25.7-.4-.5L8.2 8m.45 1.6-.05.4h-.1l.15-.4M7.3 12.1l-.15.05.15-.15v.1m-2.6.85-1.1.45v-.15q-3.05.4-6.25 0l7.15-.95.6-.15-.4.35q-.4.35 0 .45" fill="#c1a368" transform="translate(10 3.65)"/></g></defs></svg>

<?xml version="1.0" encoding="UTF-8" standalone="no"?>
<svg xmlns:xlink="http://www.w3.org/1999/xlink" height="38.3px" width="36.05px" xmlns="http://www.w3.org/2000/svg">
  <g transform="matrix(1.0, 0.0, 0.0, 1.0, 23.8, 14.85)">
    <use height="27.1" transform="matrix(1.0, 0.0, 0.0, 1.0, -10.0, -3.65)" width="18.9" xlink:href="#shape0"/>
  </g>
  <defs>
    <g id="shape0" transform="matrix(1.0, 0.0, 0.0, 1.0, 10.0, 3.65)">
      <path d="M-7.15 1.25 L-7.2 1.45 Q-7.4 1.75 -7.0 1.9 -5.2 2.15 -3.35 3.05 -1.1 4.05 0.6 5.7 0.85 5.9 1.05 5.7 2.0 3.85 4.05 2.85 L4.45 2.35 Q3.5 -2.8 -1.95 -3.25 L-2.0 -3.25 Q-5.5 -2.2 -7.15 1.25 M-3.2 3.5 L-3.65 3.3 -5.5 2.6 -5.8 2.55 -6.1 2.55 -7.55 2.55 -7.8 2.6 -8.1 2.6 -8.4 2.65 -8.25 2.35 -8.1 1.95 Q-6.35 -2.15 -1.7 -3.65 3.95 -2.75 5.15 1.9 L5.25 2.45 5.35 2.8 4.8 2.9 4.75 3.0 4.5 3.05 4.5 3.1 Q4.35 3.1 4.3 3.2 L2.6 4.4 2.6 4.5 2.5 4.6 2.15 4.95 Q1.25 6.15 1.25 8.05 L0.8 6.95 0.4 6.1 -0.2 5.35 -1.25 4.3 -1.3 4.2 -1.5 4.15 -3.2 3.5 M-6.1 4.8 Q-7.1 5.65 -7.45 7.15 -7.6 7.55 -7.35 7.8 -4.65 10.45 -0.5 8.95 L-0.25 8.65 -0.4 8.25 0.05 8.75 0.35 9.1 1.2 9.75 1.35 9.9 0.55 10.0 -0.45 10.05 -2.15 10.25 Q-4.35 10.55 -5.85 10.2 L-6.8 9.8 Q-9.55 8.6 -8.85 4.6 L-8.85 4.55 -6.55 4.7 -6.5 4.75 -6.15 4.8 -6.1 4.8 M6.65 5.2 L6.3 4.7 6.45 4.6 6.5 4.75 Q7.35 6.15 7.1 8.0 L6.55 9.3 5.1 9.8 2.1 10.05 1.85 9.8 1.7 9.75 1.7 9.6 1.7 9.5 2.35 8.7 Q2.85 9.15 4.25 9.1 5.4 8.95 6.05 8.05 L6.75 6.3 6.65 5.2" fill="#3c4d4a" fill-rule="evenodd" stroke="none"/>
      <path d="M-7.15 1.25 Q-4.75 2.1 -2.4 3.4 L-0.4 4.4 Q0.35 4.7 0.05 4.05 -0.6 1.95 -0.65 -0.2 -0.7 -2.1 -1.75 -3.2 L-1.95 -3.25 Q3.5 -2.8 4.45 2.35 L4.05 2.85 Q2.0 3.85 1.05 5.7 0.85 5.9 0.6 5.7 -1.1 4.05 -3.35 3.05 -5.2 2.15 -7.0 1.9 -7.4 1.75 -7.2 1.45 L-7.15 1.25 M-3.3 6.1 L-3.45 6.1 -6.1 6.7 Q-6.35 6.75 -6.1 6.8 -4.1 8.1 -1.3 8.25 -1.05 8.25 -0.95 8.0 L-1.1 7.45 -0.55 8.1 -0.4 8.25 -0.25 8.65 -0.5 8.95 Q-4.65 10.45 -7.35 7.8 -7.6 7.55 -7.45 7.15 -7.1 5.65 -6.1 4.8 L-5.15 5.0 -5.05 5.05 -3.3 6.1 M3.0 7.0 L3.15 7.15 Q4.7 7.95 6.2 6.8 L6.75 6.3 6.05 8.05 Q5.4 8.95 4.25 9.1 2.85 9.15 2.35 8.7 2.55 7.75 3.0 7.0" fill="#b8cbcb" fill-rule="evenodd" stroke="none"/>
      <path d="M-3.65 3.3 L-3.2 3.5 -3.25 3.65 -3.65 3.3 M-1.5 4.15 L-1.3 4.2 -1.25 4.3 -1.3 4.35 -1.35 4.4 -1.5 4.15 M5.25 2.45 L5.15 1.9 5.35 1.9 6.25 2.85 7.6 4.5 8.9 7.6 8.9 10.05 5.45 20.6 Q4.95 21.0 4.6 21.65 L4.55 21.75 3.95 22.35 3.7 22.5 3.4 22.7 Q3.0 23.2 2.0 23.25 L-2.25 23.45 -4.2 22.8 -5.3 22.25 Q-7.15 21.05 -7.9 18.8 L-9.1 15.45 -9.95 12.75 -9.95 11.65 -9.95 9.75 -9.95 8.0 -9.95 5.7 -9.95 5.6 -9.95 5.25 -10.0 5.45 -9.95 3.55 -9.85 3.4 -9.7 4.4 -9.4 4.55 -8.85 4.6 Q-9.55 8.6 -6.8 9.8 L-5.85 10.2 Q-4.35 10.55 -2.15 10.25 L-0.45 10.05 0.55 10.0 1.35 9.9 1.2 9.75 0.35 9.1 1.3 9.55 1.7 9.6 1.7 9.75 1.85 9.8 2.1 10.05 5.1 9.8 6.55 9.3 7.1 8.0 Q7.35 6.15 6.5 4.75 7.3 4.4 6.65 3.4 6.2 2.65 5.35 2.45 L5.25 2.45 M-9.55 2.45 L-9.5 2.4 -9.85 2.65 Q-9.7 2.45 -9.4 2.35 L-9.55 2.45 M-9.6 5.7 Q-10.0 7.55 -8.95 9.1 L-8.9 9.1 -9.55 5.7 -9.6 5.7 M3.7 22.5 L3.85 22.1 3.6 22.35 3.6 22.4 3.45 22.6 3.7 22.5 M-5.5 11.85 L-5.45 11.75 -5.85 11.65 -5.85 11.7 -7.55 10.85 Q-6.95 12.3 -5.7 12.85 L-5.7 13.0 -5.65 13.45 -5.6 13.65 -5.6 13.9 -5.6 13.65 -5.65 13.45 -5.6 12.95 -5.5 12.95 -4.6 13.2 Q-5.0 14.95 -4.5 16.9 L-3.95 19.35 -3.5 21.9 -1.4 22.5 1.45 22.25 1.85 22.05 4.95 20.0 Q6.75 15.6 8.05 11.2 L8.5 10.0 8.6 10.0 8.65 9.6 Q8.9 8.25 8.25 7.2 L8.0 6.5 7.6 6.1 8.05 7.55 8.2 8.0 8.2 8.25 8.15 8.7 8.05 8.4 Q7.8 11.3 4.15 11.95 0.05 12.6 -4.1 12.0 L-4.3 12.0 -4.35 12.35 -5.5 11.85 M-3.85 13.2 L-3.75 13.2 -4.2 13.5 -3.85 13.25 -3.85 13.2 M-7.2 19.75 L-7.2 19.45 Q-7.25 19.3 -7.4 19.3 L-7.2 19.75" fill="#765425" fill-rule="evenodd" stroke="none"/>
      <path d="M-3.2 3.5 L-1.5 4.15 -1.35 4.4 -1.3 4.35 -1.25 4.3 -0.2 5.35 0.4 6.1 0.8 6.95 1.25 8.05 Q1.25 6.15 2.15 4.95 L2.5 4.6 2.6 4.5 2.6 4.4 4.3 3.2 Q4.35 3.1 4.5 3.1 L4.5 3.05 4.75 3.0 4.8 2.9 5.35 2.8 5.25 2.45 5.35 2.45 Q6.2 2.65 6.65 3.4 7.3 4.4 6.5 4.75 L6.45 4.6 6.3 4.7 6.65 5.2 6.55 5.2 5.75 4.8 5.6 4.85 5.75 4.8 6.55 5.2 6.65 5.2 6.75 6.3 6.2 6.8 Q4.7 7.95 3.15 7.15 L3.0 7.0 Q3.05 6.75 3.25 6.65 L3.6 6.15 4.05 5.7 4.5 5.4 Q4.9 5.05 5.45 4.85 L5.6 4.85 6.0 4.75 6.1 4.7 6.2 4.7 6.3 4.7 6.2 4.7 6.1 4.7 6.0 4.75 5.6 4.85 5.45 4.85 Q4.9 5.05 4.5 5.4 L4.05 5.7 3.6 6.15 3.25 6.65 Q3.05 6.75 3.0 7.0 2.55 7.75 2.35 8.7 L1.7 9.5 1.7 9.6 1.3 9.55 0.35 9.1 0.05 8.75 -0.4 8.25 -0.55 8.1 -1.1 7.45 -1.15 7.4 -3.3 6.1 -5.05 5.05 -5.15 5.0 -6.1 4.8 -6.15 4.8 -6.5 4.75 -6.55 4.7 -8.85 4.55 -8.85 4.6 -9.4 4.55 -9.7 4.4 -9.85 3.4 -9.55 2.45 -9.4 2.35 -8.1 1.95 -8.25 2.35 -8.4 2.65 -8.1 2.6 -7.8 2.6 -7.55 2.55 -6.1 2.55 -5.8 2.55 -5.5 2.6 -3.65 3.3 -3.25 3.65 -3.2 3.5 M-0.05 5.7 L-0.05 5.65 -0.1 5.7 -0.05 5.7 M-7.15 4.05 Q-3.0 4.6 0.15 7.45 L0.25 7.35 Q0.05 6.1 -0.95 5.2 -3.1 3.2 -6.15 3.0 -8.2 2.8 -7.25 3.9 L-7.15 4.05 M4.75 4.5 L5.85 3.3 5.65 3.1 5.55 3.1 Q1.75 4.35 1.65 8.2 L1.7 8.2 Q2.35 6.8 3.6 5.6 L3.65 5.5 4.75 4.5" fill="#7b0d3c" fill-rule="evenodd" stroke="none"/>
      <path d="M-10.0 5.45 L-9.95 5.25 -9.95 5.6 -9.95 5.7 -10.0 5.45 M3.7 22.5 L3.45 22.6 3.6 22.4 3.6 22.35 3.85 22.1 3.7 22.5 M-5.5 11.85 L-5.85 11.7 -5.85 11.65 -5.45 11.75 -5.5 11.85 M-5.7 12.85 L-5.6 12.95 -5.65 13.45 -5.7 13.0 -5.7 12.85 M-4.6 13.2 L-3.85 13.2 -3.85 13.25 -4.2 13.5 -3.75 13.2 -3.05 13.15 -2.7 13.0 -4.35 12.35 -4.3 12.0 -4.1 12.0 Q0.05 12.6 4.15 11.95 7.8 11.3 8.05 8.4 L8.15 8.7 8.05 9.35 Q7.4 10.6 6.05 11.65 L5.65 11.85 Q5.35 11.95 5.1 12.15 L4.5 12.3 -2.65 13.25 Q0.55 13.65 3.6 13.25 L3.6 13.4 4.7 12.95 5.0 12.85 Q3.15 17.5 1.45 22.25 L-1.4 22.5 -3.5 21.9 -3.95 19.35 -4.5 16.9 Q-5.0 14.95 -4.6 13.2 M-7.2 19.75 L-7.4 19.3 Q-7.25 19.3 -7.2 19.45 L-7.2 19.75 M7.3 12.1 L7.55 11.9 7.35 12.1 7.3 12.1" fill="#a58343" fill-rule="evenodd" stroke="none"/>
      <path d="M-9.6 5.7 L-9.55 5.7 -8.9 9.1 -8.95 9.1 Q-10.0 7.55 -9.6 5.7 M-5.85 11.7 L-5.5 11.85 -4.35 12.35 -2.7 13.0 -3.05 13.15 -3.75 13.2 -3.85 13.2 -4.6 13.2 -5.5 12.95 -5.6 12.95 -5.7 12.85 Q-6.95 12.3 -7.55 10.85 L-5.85 11.7 M8.2 8.25 L8.2 8.0 7.85 6.7 8.25 7.2 Q8.9 8.25 8.65 9.6 L8.5 10.0 8.05 11.2 Q6.75 15.6 4.95 20.0 L1.85 22.05 1.45 22.25 Q3.15 17.5 5.0 12.85 L4.7 12.95 Q4.3 12.85 4.7 12.5 L5.1 12.15 Q5.35 11.95 5.65 11.85 L6.05 11.65 Q8.35 10.45 8.2 8.25 M7.3 12.1 L7.3 12.0 7.15 12.15 7.3 12.1 7.35 12.1 7.55 11.9 7.3 12.1" fill="#d5c199" fill-rule="evenodd" stroke="none"/>
      <path d="M-3.05 4.35 L-3.25 4.35 Q-3.5 4.5 -3.35 4.6 -2.4 5.5 -0.95 6.1 -0.7 6.15 -0.75 6.0 -0.95 4.7 -2.45 4.4 -4.6 3.05 -7.25 3.25 L-7.35 3.25 Q-5.15 3.55 -3.05 4.35 M-7.15 4.05 L-7.25 3.9 Q-8.2 2.8 -6.15 3.0 -3.1 3.2 -0.95 5.2 0.05 6.1 0.25 7.35 L0.15 7.45 Q-3.0 4.6 -7.15 4.05 M3.65 5.5 L3.6 5.6 Q2.35 6.8 1.7 8.2 L1.65 8.2 Q1.75 4.35 5.55 3.1 L5.65 3.1 5.85 3.3 4.75 4.5 Q4.95 4.05 4.6 3.65 L3.9 4.1 3.8 4.15 Q2.3 5.25 2.3 6.95 L2.35 6.9 2.8 5.85 3.65 5.5" fill="#fe7692" fill-rule="evenodd" stroke="none"/>
      <path d="M-3.05 4.35 Q-5.15 3.55 -7.35 3.25 L-7.25 3.25 Q-4.6 3.05 -2.45 4.4 -0.95 4.7 -0.75 6.0 -0.7 6.15 -0.95 6.1 -2.4 5.5 -3.35 4.6 -3.5 4.5 -3.25 4.35 L-3.05 4.35 M3.65 5.5 L2.8 5.85 2.35 6.9 2.3 6.95 Q2.3 5.25 3.8 4.15 L3.9 4.1 4.6 3.65 Q4.95 4.05 4.75 4.5 L3.65 5.5" fill="#ffb9c7" fill-rule="evenodd" stroke="none"/>
      <path d="M-1.95 -3.25 L-1.75 -3.2 Q-0.7 -2.1 -0.65 -0.2 -0.6 1.95 0.05 4.05 0.35 4.7 -0.4 4.4 L-2.4 3.4 Q-4.75 2.1 -7.15 1.25 -5.5 -2.2 -2.0 -3.25 L-1.95 -3.25 M-1.1 7.45 L-0.95 8.0 Q-1.05 8.25 -1.3 8.25 -4.1 8.1 -6.1 6.8 -6.35 6.75 -6.1 6.7 L-3.45 6.1 -3.3 6.1 -1.15 7.4 -1.1 7.45" fill="#ffffff" fill-rule="evenodd" stroke="none"/>
      <path d="M-0.05 5.7 L-0.1 5.7 -0.05 5.65 -0.05 5.7" fill="#e2d5ba" fill-rule="evenodd" stroke="none"/>
      <path d="M8.15 8.7 L8.2 8.25 Q8.35 10.45 6.05 11.65 7.4 10.6 8.05 9.35 L8.15 8.7 M8.2 8.0 L8.05 7.55 7.6 6.1 8.0 6.5 8.25 7.2 7.85 6.7 8.2 8.0 M8.65 9.6 L8.6 10.0 8.5 10.0 8.65 9.6 M7.3 12.1 L7.15 12.15 7.3 12.0 7.3 12.1 M4.7 12.95 L3.6 13.4 3.6 13.25 Q0.55 13.65 -2.65 13.25 L4.5 12.3 5.1 12.15 4.7 12.5 Q4.3 12.85 4.7 12.95" fill="#c1a368" fill-rule="evenodd" stroke="none"/>
    </g>
  </defs>
</svg>
